X:39
M:6/4
L:1/4
Q:3/4=85
K:G
g | f>ede/f/cg | B>AGF2G | A3D2G | E>DCB,CD | G/A/BB,A,2F | G3G,2 ||

